X:1
T:Ritournelle
T:Ritournelle
T:Cécile Chaminade
T:François Coppée (English translation: Nathan Haskell Dole)
T:OpenScore (CC0)
T:OpenScore (CC0)
T:OpenScore (CC0)
T:OpenScore (CC0)
T:OpenScore (CC0)
T:OpenScore (CC0)
T:OpenScore (CC0)
T:OpenScore (CC0)
T:OpenScore (CC0)
C:Cécile Chaminade
Z:François Coppée
Z:OpenScore (CC0)
%%score ( 1 2 ) { ( 3 5 ) | 4 }
L:1/8
Q:1/4=70
M:4/4
K:C
V:1 treble nm="Voice"
V:2 treble 
V:3 treble nm="Piano"
V:5 treble 
V:4 bass 
V:1
"^Andante." z8 | z8 | z8 | z8 | z8 |!p! C D E G (A2 G2) | (3E D E C4 B,2 | A, B, C D E2 C2 | %8
w: |||||Dans la plai- ne blonde et|sous les al- lé- es,|Pour mieux faire ac- cueil au|
w: |||||O'er the fresh green fields and|down thro' the val- ley|Let us wel- come sum- mer's|
 (3D E C D4 z2 |"^cresc." E F G A B2 c2 | (3c B A (d4 G) z |!f! A2 B2 E E!p! A2- || %12
w: doux mes- si- dor,|Nous i- rons chas- ser les|cho- ses ai- lé- es,|Moi, la strophe, et toi|
w: gold- en de- light,|Cha- sing wing- ed things that|grace- ful- ly dal- ly|I, gay ver- ses, thou|
[M:2/4] A!pp! F (3E D E ||[M:4/4] C4 z4 | z8 ||[K:Ab]"^dolce." E A A A G F (3E C E | %16
w: * le pa- pil- lon|d'or||Et nous choi- si- rous les rou- tes ten-|
w: * the but- ter- fly|bright!||Let us choose the by- ways, shad- y and|
!<(! F2 F2-!<)! F z F F | G F E C B, D2 C | B,4- B, z E2- | E F G A G F (3E C E | F2 F4- F z | %21
w: tan- tes, * Sous les|sau- les gris et près des ro-|seaux, * Pour|_ mieux è- cou- ter les cho- ses chan-|tan- tes, *|
w: lev- el, * Un- der|sil- v'ry wil- lows, by reed- y|dunes; * There|_ to hear all things that sing, gay- ly|rev- el, *|
"^dolce." _G A B _c B A (3G E G | =G2 G4- G z ||[K:C]!p! G G G3 G G2- | %24
w: Pour mieux è- cou- ter les cho- ses chan-|tan- tes; *|Moi, le rythme, et toi,|
w: There to hear all things that sing, gai- ly|rev- el, *|I, sweet  rhythms, and thou|
"^dim."!>(! G2 G2 G2 G!>)! G | G4 z4 | z8 | z8 | z8 | z8 |!p! C D E G A2 G2 | (3E D E (C4 B,2) | %32
w: * le choeur des oi-|seaux.|||||Sui- vant tous les deux les|ri- ves char- mé- es,|
w: * the birds' mer- ry|tunes.|||||As we wan- der by yon|beau- ti- ful riv- er,|
 A, B, C D E2 C2 | (3D E C D4 z2 |!<(! E F G A B2!<)! c2 | (3c B A d4 G z | %36
w: Que le fleu- ve bat de|ses flots par- leurs,|Nous vous trou- ve- rons, cho-|ses par- fu- mé- es,|
w: Whose clear rip- ples break in|mu- si- cal show'rs,|Per- fum'd  things  we'll find for|Love is the giv- er:|
[Q:1/4=72]"^cresc." ^G G[Q:1/4=73] A A[Q:1/4=74] D4[Q:1/4=75] |!f! ^A A B B E4 |!f! c B A E A2 E2 | %39
w: Moi, gla- nant des vers,|toi cueil- lant des fleurs.|Et l'a- mour ser- vant no-|
w: I, a sheaf of rhymes,|thou a bunch of flow'rs!|Love shall be our guide, to|
 (3F G A E4 D2 |!<(! C D E G!<)! c4 |!<(! D E F A!<)! d4 | _e d c G c2 G2 | %43
w: tre fan- tai- si- e,|Fe- ra ce jour là|l'é- té plus char- mant,|Je se- rai po- ète et|
w: tell us his sto- ry;|Sum- mer's  bright- est child|shall this day then glow:|Po- et I shall be, thou|
!p! (3_A _B c!<(! G4 ^F2!<)! |"^marc." =F A G E C2[Q:1/4=72] (D E) | %45
w: toi po- é- si- e,|Tu se- ras plus belle et _|
w: Po- e- sy's glo- ry;|Ev- er fair- er thou, more in|
"^rit."[Q:1/4=68] !breath!G4[Q:1/4=66]"^cresc." G3[Q:1/4=64] G | %46
w: moi plus ai-|
w: love I shall|
[Q:1/4=70]"^a tempo."!f!!<(! G8-!<)![Q:1/4=70]"_a tempo." | G8 | z8 | z8 | z8 | z8 | z8 |] %53
w: \- mant.|||||||
w: grow.|||||||
V:2
 x8 | x8 | x8 | x8 | x8 | x8 | x8 | x8 | x8 | x8 | x8 | x8 ||[M:2/4] x4 ||[M:4/4] x8 | x8 || %15
[K:Ab] x8 | x8 | x8 | x8 | x8 | x8 | x8 | x8 ||[K:C] x8 | x8 | x8 | x8 | x8 | x8 | x8 | x8 | x8 | %32
 x8 | x8 | x8 | x8 | x8 | x8 | x8 | x8 | x8 | x8 | x8 | x8 | x6 DE | G4 x4 | x8 | x8 | x8 | x8 | %50
 x8 | x8 | x8 |] %53
V:3
 z [ce][ce][ce] [ce][ce][ce][ce] | z [c_e][ce][ce]!p! [ce][ce][ce][ce] | %2
!<(! (C [c=e][ce][ce]!<)! z [ce][ce][ce]) |"^m.d." z [ce][ce][ce] [cf][cf]"_m.g."[cf][cf] | %4
"_m.d." !>!_A[cf]"_dim." [ce][ce]"_m.g." [=Be][Be]!pp![Be][Be] | %5
 [Ece][ce][ce][ce] [ce][ce][ce][ce] | ([ce][ce][ce][ce] [ce][ce][ce][ce]) | %7
 ([Acf][Acf][Acf][GBf]) ([Gcg][Gcg][Gce][Gce]) | [GBf][Gce][GBf][GBf] [GBf][GBf][GBf][GBf] | %9
"_cresc." ([Ece][Fce][Gce][Ace] [Bce][Bce][Ace][Ace]) | %10
 ([Gcf][Gcf][Gcf][Gcf] [GBf][GBf][GBf][GBf]) |!mf! [Ad][Ad][B^d][Bd] [Be][Be]!p![A^c][Ac] || %12
[M:2/4] [cf][cf]!pp! [FGB][FGB] ||[M:4/4] (C [ce][ce][ce] [ce][ce][ce][ce]) | %14
 z [c_e][ce][ce] [ce][ce][ce][ce] ||[K:Ab] ([ce][ce][ce][ce] [ce][ce][ce][ce]) | %16
 ([A=B=d][ABd][ABd][ABd] [ABd][ABd][ABd][ABd]) | (!>!G [Ace][Ace][Ace] [Adf][Adf][Adf][Adf]) | %18
!>(! ([Ad_f][Adf][Adf]!>)![Adf] [Gde][Gde][Gde][Gde]) | ([Ace][ce][ce][ce] [ce][ce][ce][ce]) | %20
 ([A_c=d][Acd][Acd][Acd] [Acd][Acd][Acd][Acd]) | (!>!_G [_ce_g][eg][eg] [eg][eg][eg][eg]) | %22
 =G[=B=d=f][Bdf][Bdf] [Bdf][Bdf][=c=e][ce] || %23
[K:C]!pp! ([Bd][Bd][ce][ce]) ([Bd][Bd] (3[ce][Bd][ce]) | ([Bd][Bd][ce][ce] [cf][cf][Bd][Bd]) | %25
 ([Ece][ce][ce][ce] [ce][ce][ce][ce]) | z [c_e][ce][ce] [ce][ce][ce][ce] | %27
!<(! (C[c=e][ce][ce]!<)! z [ce][ce][ce]) | z [ce][ce][ce] [cf][cf]"_m.g."[cf][cf] | %29
 _A[cf][ce][ce]"_m.g." [=Be][Be]!pp![Be][Be] |!p! ([Ece][ce][ce][ce] [ce][ce][ce][ce]) | %31
 ([ce][ce][ce][ce] [ce][ce][ce][ce]) | ([Acf][Acf][Acf][Acf] [Gcg][Gcg][Gce][Gce]) | %33
 ([GBf][Gce][GBf][GBf] [GBf][GBf][GBf][GBf]) | %34
!<(! ([Ece][Fce][Gce][Ace] [Bce]!<)![Bce][Ace][Ace]) | [Gcf][Gcf][Gcf][Gcf] [GBf][GBf][GBf][GBf] | %36
"_cresc." [^G^B][GB][A^c][Ac] [Ad][Ad][Ad][Ad] |!f! [^A^^c][Ac][=B^d][Bd] [Be][Be][Be][Be] | %38
!f! [E=ce][EBe][EAe][Ee] [EAe][EAe][CE=G][CEG] | %39
 [B,FG][B,FG][B,EG][B,EG] [B,EG][B,EG][B,DG][B,DG] | %40
 [G,CG][G,CG][G,CG][G,CG]"_cresc." [A,CEA][A,CEA][A,CEA][A,CEA] | %41
 [A,DFA][A,DFA][A,DFA][A,DFA] [B,DFB][B,DFB][B,DFB][B,DFB] | %42
"_dim." [_EG_e][EGd][EGc]G [Gc][Gc][EG_B][EGB] | %43
!p! [_A,D_A][A,DA]!<(![A,DG][A,DG] [A,DG][A,DG][=A,_E^F][A,EF]!<)! | [B,=F][B,=A][C-G][C=E] C2 DE | %45
 [A,CF]4"_cresc." [G,B,E]2 [F,B,D]2 |!ff! [cec'][Bb][Aa][Ee] [Aa]2 e2 | (3[FBf][Gg][=A=a] e4 d2 | %48
 (!arpeggio!cBAE) G4 | !>![A,CF]4 [G,B,E]2 [F,B,D]2 | ([E,C][G,D][CE][DG] [EA]2) [DG]2 | %51
 (3EDE !-(![E,C]4[I:staff +1] !-)![D,G,]2 | [G,,C,E,]6[I:staff -1] z2 |] %53
V:4
[I:staff -1] C"^legatiss.\nmarc. il basso."DEG A2 GE | %1
!ped![I:staff +1] [C_E]4 [_A,,,_E,,_A,,]4!ped-up! | [C,,G,,] DE!-(!G"^m.g."[I:staff -1] !-)!c2 BG | %3
[I:staff +1] z4!ped! [F,,,F,,]2[I:staff -1] AF!ped-up! |[I:staff +1] z2 [G,,,G,,]2 z2 [G,,G,]2 | %5
 [C,,C,][I:staff -1]DEG A2 G2 | (3EDE C4 !-(!B,2 |[I:staff +1] !-)!A,B,CD E2 D2 | (3DEC D2- D4 | %9
 z4 [G,,,G,,]4 | D4 G,4 | FF[B,^F][B,F] [E^G][EG]=GG ||[M:2/4] =F2 [G,,,G,,]2 || %13
[M:4/4] ([C,,C,] DEG A2 GE) |!ped! [C_E]4 [_A,,,_E,,_A,,]4!ped-up! ||[K:Ab] EA A2 GF (3ECE | %16
 F2 F4 F2 |!ped! !>![E,,,E,,] FEC!ped-up! B, D2 C | B,4 [E,,E,]4 | %19
!ped! [A,,,A,,] FGA!ped-up! GF (3ECE | F2 F4 F2 | %21
!ped! !>![_G,,,_G,,][K:treble] (AB_c!ped-up! BA (3_GEG) | %22
[K:bass] z2!ped! (=G,,,2 =G,,2 =G,2)!ped-up! || %23
[K:C] [FG]"^legatiss."[FG][EG][EG] [FG][FG][EG][EG] | [FG][FG][EG][EG] [DA][DA][G,F][G,F] | %25
!ped!!p! [C,,C,]"^dolce marc."[I:staff -1]DEG!ped-up! A2 GE | %26
!ped![I:staff +1] [C_E]4 [_A,,,_E,,_A,,]4!ped-up! |!ped! [C,,G,,][I:staff -1]DEG c2!ped-up! BG | %28
[I:staff +1] z4!ped! !>![F,,,F,,]2[I:staff -1] AF!ped-up! | %29
[I:staff +1] z2!ped! [G,,,G,,]2 x2!ped-up! [G,,G,]2 | [C,,C,][I:staff -1]DEG A2 !-(!G2 | %31
[I:staff +1] (3(!-)!EDE) C4 B,2 | A,B,CD E2 C2 | (3(DEC) D2- D4 | z4 !>![G,,,G,,]4 | D4 G,4 | %36
 ^DD[A,E][A,E] [=D^F][DF][DF][DF] | ^EE[B,^F][B,F] [=E^G][EG][EG][EG] | %38
 !>![=G,,,=G,,]!>!E, (3!>!F,!>!^F,!>!G, !>!=C2 [G,,,G,,]2 | %39
 [G,,D,][G,,D,][G,,E,][G,,E,] [G,,F,][G,,F,][G,,F,][G,,F,] | %40
 [G,,E,][G,,E,][G,,E,][G,,E,] [G,,E,]2 [G,,,G,,]2 | %41
 [G,,F,][G,,F,][G,,F,][G,,F,] !arpeggio![G,,_A,]2 !>![G,,,G,,]2- | %42
 [G,,,G,,]!>!G, (3!>!_A,!>!=A,!>!_B, !>!_E2 [_E,,,_E,,]2 | %43
 [_E,,_B,,F,][E,,B,,F,][E,,B,,][E,,B,,] B,,B,,C,C, |"^marc." [G,,,G,,] F,(=E,C,) [=A,,E,]2 z2 | %45
"^rit." D,,4 [G,,,G,,]4 | %46
!ped! [C,,,C,,]!>!E, (3!>!F,!>!^F,!>!G, !>!C [G,,,G,,] [E,G,^A,^C][E,G,A,C]!ped-up! | %47
 [D,B,][D,B,][E,B,][E,B,] [=F,B,][F,B,][F,B,][F,B,] |!f! !arpeggio![A,,E,C]4 [E,,C,]3 E, | %49
 !>!G,4!p! [G,,,G,,]4 |!pp! ([C,,,C,,][C,,G,,][C,,G,,][C,,G,,] [C,,G,,][C,,G,,][C,,G,,][C,,G,,]) | %51
 ([C,,G,,][C,,G,,][C,,G,,][C,,G,,] [C,,G,,][C,,G,,][C,,G,,][C,,G,,]) | %52
!ped! [C,,,C,,]6!ped-up! z2 |] %53
V:5
 x8 | _A8 | x8 | !>!_B6 x2 | _A2 GE G2 FF | x8 | x8 | x8 | x8 | x8 | x8 | x8 ||[M:2/4] x4 || %13
[M:4/4] x8 | _A8 ||[K:Ab] x8 | x8 | x8 | x8 | x8 | x8 | x8 | G2 x6 ||[K:C] x8 | x8 | x8 | !>!_A8 | %27
 x8 | !>!_B6 x2 | _A2 GE G2 FF | x8 | x8 | x8 | x8 | x8 | x8 | x8 | x8 | x8 | x8 | x8 | x8 | x8 | %43
 x8 | x8 | x8 | x6 [E^A][EA] | x2 [EB][EB] [EB][EB][DB][DB] | E4 CB,A, z | x8 | x8 | CG, x6 | x8 |] %53

